X:57
T: Maedchen als Stallknecht
N: Q3100D
O: Suedosteuropa, Jugoslawien, Krain
N: Melodievariante zu Q0100A, anderes Lied. Verzierung (Vorschlag).
N: Schlusspause korrigiert.
R: ???
M: 4/4
L: 1/8
K: G
D2G2A2 | _B4A4 | d2c_BA4 | z2
D2G2A2 | _B3AG2FG | AFG6 | z2
D2G2A2 | _B3AG2FG | AFG6 | z2

